X:660
%%etbk:tnset id:352,pos:3,rep:3x,ant:
%%etbk:wsite https://thesession.org/tunes/1555
%%etbk:pldat 2016-05-25T17:45,2015-04-08T15:34,2015-03-31T17:55
T: The Drunken Tinker
Z: Piano Box Version by Martin Fleischmann
H: Created 2015-03-30 /  Last Modified 2016-05-25
R: reel
M: 4/4
L: 1/8
K: Amix
!1!E!2!AA!1!G !2!E!4!G!1!D!4!G|!1!E2~!2!A2 !5!f!2!A!5!e!2!A|!1!E!2!AA!1!G !2!EEEF|1 !1!G2BG !4!=cGBG:|2 GABd dBGB||
!1!A2!4!eA !5!fAeA|fAeA dBGB|A2eA fAeA|d2BG DGBG|
A2eA fAeA|fAeA dBGB|~e3f ~g3e|d2BG DGBG||


